X: 24826
T: Maggie Pickins
R: strathspey
M: 4/4
K: Gmajor
|:G>ED>E G>A B2|(3cBA B>G A>G (3EDE|G>ED>E G>AB>d|d>B (3ABA G2 G2:|
(3efg d>B c>ed>d|d>B A>G E>A (3ABA|(3efg d>B c>ed>d|d>B (3ABA G2 G2|
(3efg d>B c>ed>d|d>B A>G E>A (3ABA|G>ED>E G>AB>d|d>B (3ABA G2 G2||

